X:14492
T:Ronde du romarin
R:Branle
A:Normandie
O:France
M:2/4
L:1/8
Q:1/4=105
K:D
D|A>A AA|BA d2|c/2c/2B/2B/2 A2||
AA|d>A AG|FE F2|F/2F/2F/2F/2 AG|FE A2|
d/2d/2d/2d/2 dc|BB AA|EG FE|D2 z2||
W:
W:Dans la cour de ma tante
W:Plantons le romarin
W:Il y a un coq qui chante
W:Plantons le romarin, Mesdames
W:Plantons le romarin, Mesdames
W:Au beau milieu du jardin
